icon-themes/sifr_svg/cmd/lc_cleararrowdependents.svg

<svg viewBox="0 0 24 24" xmlns="http://www.w3.org/2000/svg"><g fill="#555753"><path d="m15 3c-.554 0-1 .446-1 1v6c0 .554.446 1 1 1h6c.554 0 1-.446 1-1v-6c0-.554-.446-1-1-1zm1 2h4v4h-4zm-14 8v1.707031l2.7929688 2.292969-2.7929688 2.292969v1.707031h1.7070312l2.7929688-2.292969 2.7929688 2.292969h1.7070312v-1.707031l-2.7929688-2.292969 2.7929688-2.292969v-1.707031h-1.7070312l-2.7929688 2.292969-2.7929688-2.292969zm13 0c-.554 0-1 .446-1 1v6c0 .554.446 1 1 1h6c.554 0 1-.446 1-1v-6c0-.554-.446-1-1-1zm1 2h4v4h-4z"/><path d="m6 3v1c0 .2653.0931.53058.28125.71875l1.28125 1.28125h-5.5625v2h5.5625l-1.28125 1.28125c-.18811.18818-.28129.45344-.28125.71875v1h1c.26529 0 .53057-.09304.71875-.28125l3-3 .28125-.28125v-.875l-.28125-.28125-3-3c-.18817-.18814-.45344-.2812198-.71875-.28125z" opacity=".35"/></g></svg>

<svg xmlns="http://www.w3.org/2000/svg" viewBox="0 0 24 24">
  <path
     style="fill:#555753"
     d="M 15 3 C 14.446 3 14 3.446 14 4 L 14 10 C 14 10.554 14.446 11 15 11 L 21 11 C 21.554 11 22 10.554 22 10 L 22 4 C 22 3.446 21.554 3 21 3 L 15 3 z M 16 5 L 20 5 L 20 9 L 16 9 L 16 5 z M 2 13 L 2 14.707031 L 4.7929688 17 L 2 19.292969 L 2 21 L 3.7070312 21 L 6.5 18.707031 L 9.2929688 21 L 11 21 L 11 19.292969 L 8.2070312 17 L 11 14.707031 L 11 13 L 9.2929688 13 L 6.5 15.292969 L 3.7070312 13 L 2 13 z M 15 13 C 14.446 13 14 13.446 14 14 L 14 20 C 14 20.554 14.446 21 15 21 L 21 21 C 21.554 21 22 20.554 22 20 L 22 14 C 22 13.446 21.554 13 21 13 L 15 13 z M 16 15 L 20 15 L 20 19 L 16 19 L 16 15 z "
     />
  <path
     style="opacity:0.35;fill:#555753"
     d="M 6,3 V 4 C 6,4.2653 6.0931,4.53058 6.28125,4.71875 L 7.5625,6 H 2 V 8 H 7.5625 L 6.28125,9.28125 C 6.09314,9.46943 5.99996,9.73469 6,10 v 1 h 1 c 0.26529,0 0.53057,-0.09304 0.71875,-0.28125 l 3,-3 L 11,7.4375 v -0.875 l -0.28125,-0.28125 -3,-3 C 7.53058,3.09311 7.26531,3.0000302 7,3 Z"
     />
</svg>
